; generated by Slic3r 1.2.9 on 2017-11-16 at 23:14:37

; external perimeters extrusion width = 0.45mm
; perimeters extrusion width = 0.45mm
; infill extrusion width = 0.20mm
; solid infill extrusion width = 0.20mm
; top infill extrusion width = 0.20mm

M107
M115 U3.0.12 ; tell printer latest fw version
M83  ; extruder relative mode
M104 S215 ; set extruder temp
M140 S55 ; set bed temp
M190 S55 ; wait for bed temp
M109 S215 ; wait for extruder temp
G28 W ; home all without mesh bed level
G80 ; mesh bed leveling
G1 Y-3.0 F1000.0 ; go outside print area
G92 E0.0
G1 X60.0 E9.0  F1000.0 ; intro line
G1 X100.0 E12.5  F1000.0 ; intro line
G92 E0.0
G21 ; set units to millimeters
G90 ; use absolute coordinates
M83 ; use relative distances for extrusion
;BEFORE_LAYER_CHANGE
;0.1


G1 E-0.80000 F2100.00000
G1 Z0.500 F7200.000
;AFTER_LAYER_CHANGE
;0.1
G1 X120.018 Y100.651 F7200.000
G1 Z0.100 F7200.000
G1 E0.80000 F2100.00000
M204 S1000
G1 X120.479 Y100.173 E0.01183 F900.000
G1 X121.031 Y99.710 E0.01283
G1 X121.410 Y99.446 E0.00823
G1 X121.985 Y99.114 E0.01183
G1 X122.642 Y98.821 E0.01282
G1 X123.275 Y98.616 E0.01185
G1 X123.978 Y98.466 E0.01282
G1 X124.440 Y98.411 E0.00828
G1 X125.101 Y98.388 E0.01180
G1 X125.820 Y98.438 E0.01284
G1 X126.474 Y98.553 E0.01183
G1 X127.166 Y98.752 E0.01284
G1 X127.782 Y99.000 E0.01183
G1 X128.418 Y99.338 E0.01283
G1 X128.805 Y99.591 E0.00824
G1 X129.328 Y100.000 E0.01183
G1 X129.846 Y100.500 E0.01284
G1 X130.271 Y101.007 E0.01178
G1 X130.539 Y101.387 E0.00828
G1 X130.899 Y102.010 E0.01283
G1 X131.169 Y102.617 E0.01183
G1 X131.320 Y103.054 E0.00824
G1 X131.494 Y103.752 E0.01282
G1 X131.587 Y104.410 E0.01183
G1 X131.612 Y105.130 E0.01284
G1 X131.566 Y105.792 E0.01182
G1 X131.494 Y106.249 E0.00824
G1 X131.320 Y106.947 E0.01282
G1 X131.093 Y107.572 E0.01185
G1 X130.777 Y108.219 E0.01282
G1 X130.425 Y108.782 E0.01183
G1 X129.982 Y109.349 E0.01284
G1 X129.666 Y109.686 E0.00823
G1 X129.173 Y110.130 E0.01183
G1 X128.590 Y110.554 E0.01284
G1 X128.015 Y110.886 E0.01183
G1 X127.357 Y111.179 E0.01284
G1 X126.725 Y111.384 E0.01183
G1 X126.276 Y111.489 E0.00823
G1 X125.562 Y111.589 E0.01284
G1 X124.899 Y111.612 E0.01183
G1 X124.180 Y111.562 E0.01284
G1 X123.526 Y111.447 E0.01183
G1 X123.080 Y111.328 E0.00823
G1 X122.404 Y111.082 E0.01281
G1 X121.806 Y110.791 E0.01185
G1 X121.196 Y110.410 E0.01282
G1 X120.672 Y110.000 E0.01185
G1 X120.154 Y109.500 E0.01284
G1 X119.729 Y108.993 E0.01178
G1 X119.461 Y108.613 E0.00829
G1 X119.101 Y107.990 E0.01282
G1 X118.830 Y107.381 E0.01186
G1 X118.609 Y106.698 E0.01280
G1 X118.471 Y106.051 E0.01178
G1 X118.413 Y105.589 E0.00830
G1 X118.388 Y104.870 E0.01281
G1 X118.434 Y104.211 E0.01178
G1 X118.506 Y103.752 E0.00827
G1 X118.680 Y103.053 E0.01284
G1 X118.907 Y102.428 E0.01185
G1 X119.223 Y101.781 E0.01282
G1 X119.576 Y101.217 E0.01185
G1 X119.980 Y100.697 E0.01174
G1 X120.337 Y100.937 F7200.000
G1 X120.777 Y100.481 E0.01130 F900.000
G1 X121.283 Y100.057 E0.01176
G1 X121.637 Y99.810 E0.00769
G1 X122.186 Y99.492 E0.01130
G1 X122.789 Y99.224 E0.01176
G1 X123.198 Y99.084 E0.00771
G1 X123.813 Y98.930 E0.01130
G1 X124.467 Y98.838 E0.01176
G1 X124.899 Y98.816 E0.00770
G1 X125.532 Y98.838 E0.01129
G1 X126.186 Y98.930 E0.01175
G1 X126.802 Y99.084 E0.01132
G1 X127.422 Y99.309 E0.01176
G1 X127.993 Y99.588 E0.01130
G1 X128.553 Y99.938 E0.01177
G1 X129.052 Y100.328 E0.01129
G1 X129.528 Y100.787 E0.01178
G1 X129.934 Y101.271 E0.01125
G1 X130.184 Y101.626 E0.00775
G1 X130.514 Y102.198 E0.01177
G1 X130.771 Y102.777 E0.01129
G1 X130.913 Y103.186 E0.00771
G1 X131.072 Y103.827 E0.01176
G1 X131.161 Y104.454 E0.01130
G1 X131.184 Y105.115 E0.01177
G1 X131.139 Y105.747 E0.01129
G1 X131.072 Y106.174 E0.00771
G1 X130.912 Y106.815 E0.01176
G1 X130.695 Y107.411 E0.01131
G1 X130.406 Y108.004 E0.01176
G1 X130.070 Y108.542 E0.01129
G1 X129.663 Y109.063 E0.01177
G1 X129.368 Y109.378 E0.00769
G1 X128.897 Y109.802 E0.01129
G1 X128.363 Y110.191 E0.01177
G1 X127.814 Y110.508 E0.01129
G1 X127.210 Y110.776 E0.01177
G1 X126.607 Y110.972 E0.01129
G1 X126.187 Y111.070 E0.00769
G1 X125.532 Y111.162 E0.01177
G1 X124.899 Y111.184 E0.01129
G1 X124.240 Y111.138 E0.01177
G1 X123.615 Y111.028 E0.01129
G1 X123.198 Y110.916 E0.00769
G1 X122.578 Y110.691 E0.01175
G1 X122.007 Y110.412 E0.01131
G1 X121.448 Y110.063 E0.01175
G1 X120.948 Y109.672 E0.01131
G1 X120.472 Y109.213 E0.01178
G1 X120.066 Y108.729 E0.01125
G1 X119.816 Y108.373 E0.00775
G1 X119.486 Y107.802 E0.01176
G1 X119.229 Y107.225 E0.01125
G1 X119.087 Y106.814 E0.00775
G1 X118.928 Y106.174 E0.01176
G1 X118.839 Y105.544 E0.01133
G1 X118.816 Y104.885 E0.01174
G1 X118.860 Y104.256 E0.01125
G1 X118.928 Y103.827 E0.00774
G1 X119.088 Y103.185 E0.01177
G1 X119.305 Y102.589 E0.01131
G1 X119.594 Y101.996 E0.01176
G1 X119.931 Y101.457 E0.01132
G1 X120.298 Y100.983 E0.01068
G1 X120.655 Y101.224 F7200.000
G1 X121.075 Y100.790 E0.01076 F900.000
G1 X121.535 Y100.404 E0.01070
G1 X121.864 Y100.173 E0.00716
G1 X122.387 Y99.871 E0.01077
G1 X122.936 Y99.627 E0.01069
G1 X123.511 Y99.440 E0.01078
G1 X124.098 Y99.315 E0.01069
G1 X124.500 Y99.266 E0.00722
G1 X125.101 Y99.245 E0.01072
G1 X125.701 Y99.287 E0.01071
G1 X126.296 Y99.391 E0.01076
G1 X126.873 Y99.557 E0.01071
G1 X127.433 Y99.783 E0.01076
G1 X127.964 Y100.065 E0.01070
G1 X128.301 Y100.284 E0.00717
G1 X128.777 Y100.656 E0.01076
G1 X129.209 Y101.074 E0.01071
G1 X129.596 Y101.534 E0.01071
G1 X129.828 Y101.866 E0.00721
G1 X130.128 Y102.386 E0.01070
G1 X130.374 Y102.938 E0.01076
G1 X130.505 Y103.319 E0.00717
G1 X130.650 Y103.901 E0.01069
G1 X130.734 Y104.499 E0.01076
G1 X130.755 Y105.100 E0.01071
G1 X130.713 Y105.702 E0.01076
G1 X130.650 Y106.100 E0.00717
G1 X130.505 Y106.682 E0.01070
G1 X130.298 Y107.251 E0.01078
G1 X130.035 Y107.790 E0.01069
G1 X129.715 Y108.302 E0.01076
G1 X129.345 Y108.776 E0.01071
G1 X129.071 Y109.070 E0.00716
G1 X128.622 Y109.474 E0.01076
G1 X128.136 Y109.827 E0.01071
G1 X127.613 Y110.129 E0.01076
G1 X127.064 Y110.374 E0.01071
G1 X126.489 Y110.560 E0.01076
G1 X126.098 Y110.651 E0.00716
G1 X125.502 Y110.734 E0.01071
G1 X124.899 Y110.755 E0.01076
G1 X124.299 Y110.713 E0.01071
G1 X123.704 Y110.609 E0.01076
G1 X123.316 Y110.504 E0.00716
G1 X122.752 Y110.299 E0.01069
G1 X122.209 Y110.034 E0.01078
G1 X121.700 Y109.716 E0.01069
G1 X121.223 Y109.344 E0.01078
G1 X120.791 Y108.926 E0.01071
G1 X120.404 Y108.466 E0.01071
G1 X120.172 Y108.134 E0.00722
G1 X119.872 Y107.614 E0.01070
G1 X119.627 Y107.065 E0.01072
G1 X119.495 Y106.681 E0.00722
G1 X119.350 Y106.099 E0.01069
G1 X119.265 Y105.499 E0.01079
G1 X119.245 Y104.900 E0.01068
G1 X119.287 Y104.300 E0.01071
G1 X119.350 Y103.901 E0.00721
G1 X119.495 Y103.318 E0.01071
G1 X119.702 Y102.749 E0.01078
G1 X119.965 Y102.210 E0.01069
G1 X120.286 Y101.697 E0.01078
G1 X120.617 Y101.270 E0.00962
G1 X120.974 Y101.511 F7200.000
G1 X121.373 Y101.098 E0.01023 F900.000
G1 X121.787 Y100.750 E0.00964
G1 X122.091 Y100.536 E0.00663
G1 X122.589 Y100.249 E0.01023
G1 X123.082 Y100.029 E0.00963
G1 X123.629 Y99.852 E0.01024
G1 X124.158 Y99.739 E0.00963
G1 X124.530 Y99.693 E0.00668
G1 X125.101 Y99.673 E0.01019
G1 X125.641 Y99.711 E0.00964
G1 X126.206 Y99.811 E0.01023
G1 X126.727 Y99.960 E0.00964
G1 X127.259 Y100.175 E0.01023
G1 X127.737 Y100.429 E0.00963
G1 X128.049 Y100.631 E0.00663
G1 X128.502 Y100.985 E0.01023
G1 X128.891 Y101.361 E0.00964
G1 X129.258 Y101.798 E0.01018
G1 X129.473 Y102.105 E0.00668
G1 X129.743 Y102.574 E0.00964
G1 X129.977 Y103.098 E0.01023
G1 X130.098 Y103.451 E0.00664
G1 X130.228 Y103.975 E0.00963
G1 X130.308 Y104.544 E0.01023
G1 X130.327 Y105.085 E0.00964
G1 X130.287 Y105.657 E0.01023
G1 X130.228 Y106.025 E0.00664
G1 X130.097 Y106.550 E0.00963
G1 X129.901 Y107.090 E0.01024
G1 X129.664 Y107.576 E0.00963
G1 X129.359 Y108.063 E0.01023
G1 X129.026 Y108.489 E0.00964
G1 X128.773 Y108.761 E0.00663
G1 X128.346 Y109.146 E0.01023
G1 X127.909 Y109.464 E0.00964
G1 X127.411 Y109.751 E0.01023
G1 X126.917 Y109.971 E0.00964
G1 X126.371 Y110.148 E0.01023
G1 X126.008 Y110.231 E0.00663
G1 X125.473 Y110.307 E0.00964
G1 X124.899 Y110.327 E0.01023
G1 X124.359 Y110.289 E0.00964
G1 X123.794 Y110.189 E0.01023
G1 X123.434 Y110.093 E0.00663
G1 X122.927 Y109.908 E0.00963
G1 X122.410 Y109.656 E0.01024
G1 X121.951 Y109.369 E0.00963
G1 X121.498 Y109.015 E0.01024
G1 X121.109 Y108.639 E0.00964
G1 X120.742 Y108.202 E0.01018
G1 X120.527 Y107.894 E0.00668
G1 X120.257 Y107.426 E0.00963
G1 X120.024 Y106.904 E0.01018
G1 X119.902 Y106.549 E0.00668
G1 X119.772 Y106.025 E0.00963
G1 X119.692 Y105.455 E0.01025
G1 X119.673 Y104.915 E0.00962
G1 X119.713 Y104.344 E0.01019
G1 X119.772 Y103.975 E0.00666
G1 X119.903 Y103.450 E0.00964
G1 X120.099 Y102.910 E0.01024
G1 X120.336 Y102.424 E0.00963
G1 X120.641 Y101.937 E0.01025
G1 X120.935 Y101.557 E0.00856
G1 F5760
G1 X121.373 Y101.098 E-0.21962
G1 F5760
G1 X121.787 Y100.750 E-0.18731
G1 F5760
G1 X122.091 Y100.536 E-0.12885
G1 F5760
G1 X122.589 Y100.249 E-0.19891
G1 F5760
G1 X122.655 Y100.220 E-0.02531
G1 E-0.04000 F2100.00000
G1 Z0.600 F7200.000
G1 X127.164 Y106.572 F7200.000
G1 Z0.100 F7200.000
G1 E0.80000 F2100.00000
G1 X126.921 Y106.861 E0.00672 F900.000
G1 X126.793 Y106.985 E0.00319
G1 X126.496 Y107.217 E0.00672
G1 X126.169 Y107.406 E0.00672
G1 X126.006 Y107.478 E0.00319
G1 X125.643 Y107.596 E0.00679
G1 X125.464 Y107.634 E0.00326
G1 X125.283 Y107.660 E0.00326
G1 X124.903 Y107.673 E0.00679
G1 X124.724 Y107.660 E0.00319
G1 X124.353 Y107.595 E0.00672
G1 X123.994 Y107.478 E0.00672
G1 X123.831 Y107.406 E0.00318
G1 X123.502 Y107.216 E0.00676
G1 X123.207 Y106.985 E0.00667
G1 X123.079 Y106.861 E0.00319
G1 X122.835 Y106.571 E0.00674
G1 X122.732 Y106.417 E0.00330
G1 X122.640 Y106.259 E0.00325
G1 X122.487 Y105.915 E0.00672
G1 X122.383 Y105.555 E0.00667
G1 X122.352 Y105.376 E0.00323
G1 X122.325 Y104.998 E0.00674
G1 X122.332 Y104.813 E0.00330
G1 X122.351 Y104.632 E0.00325
G1 X122.430 Y104.259 E0.00679
G1 X122.485 Y104.089 E0.00319
G1 X122.638 Y103.747 E0.00667
G1 X122.836 Y103.428 E0.00669
G1 X123.077 Y103.141 E0.00667
G1 X123.207 Y103.015 E0.00323
G1 X123.508 Y102.780 E0.00679
G1 X123.663 Y102.684 E0.00326
G1 X123.824 Y102.598 E0.00326
G1 X124.177 Y102.455 E0.00679
G1 X124.349 Y102.406 E0.00319
G1 X124.720 Y102.340 E0.00672
G1 X125.096 Y102.327 E0.00669
G1 X125.468 Y102.367 E0.00667
G1 X125.643 Y102.404 E0.00319
G1 X126.006 Y102.522 E0.00679
G1 X126.169 Y102.594 E0.00319
G1 X126.499 Y102.785 E0.00679
G1 X126.787 Y103.010 E0.00651
G1 X127.047 Y103.279 E0.00667
G1 X127.270 Y103.586 E0.00676
G1 X127.360 Y103.741 E0.00318
G1 X127.513 Y104.085 E0.00672
G1 X127.617 Y104.445 E0.00667
G1 X127.648 Y104.624 E0.00323
G1 X127.675 Y105.002 E0.00674
G1 X127.649 Y105.368 E0.00655
G1 X127.570 Y105.741 E0.00679
G1 X127.515 Y105.911 E0.00319
G1 X127.362 Y106.253 E0.00667
G1 X127.195 Y106.521 E0.00562
G1 X127.250 Y105.975 F7200.000
G1 X125.975 Y105.975 E0.02272 F900.000
G1 X125.975 Y107.250 E0.02272
G1 X124.025 Y107.250 E0.03474
G1 X124.025 Y105.975 E0.02272
G1 X122.750 Y105.975 E0.02272
G1 X122.750 Y104.025 E0.03474
G1 X124.025 Y104.025 E0.02272
G1 X124.025 Y102.750 E0.02272
G1 X125.975 Y102.750 E0.03474
G1 X125.975 Y104.025 E0.02272
G1 X127.250 Y104.025 E0.02272
G1 X127.250 Y105.915 E0.03367
G1 X126.404 Y106.404 F7200.000
G1 X126.746 Y106.404 E0.00610 F900.000
G1 X126.607 Y106.568 E0.00383
G1 X126.404 Y106.745 E0.00481
G1 X126.404 Y106.464 E0.00502
G1 F5760
G1 X126.404 Y106.745 E-0.09760
G1 F5760
G1 X126.607 Y106.568 E-0.09356
G1 F5760
G1 X126.746 Y106.404 E-0.07446
G1 F5760
G1 X126.404 Y106.404 E-0.11850
G1 E-0.41588 F2100.00000
G1 Z0.600 F7200.000
G1 X123.254 Y106.404 F7200.000
G1 Z0.100 F7200.000
G1 E0.80000 F2100.00000
G1 X123.596 Y106.404 E0.00610 F900.000
G1 X123.596 Y106.745 E0.00609
G1 X123.392 Y106.568 E0.00481
G1 X123.293 Y106.449 E0.00276
G1 F5760
G1 X123.392 Y106.568 E-0.05366
G1 F5760
G1 X123.596 Y106.745 E-0.09360
G1 F5760
G1 X123.596 Y106.404 E-0.11840
G1 F5760
G1 X123.254 Y106.404 E-0.11853
G1 E-0.41581 F2100.00000
G1 Z0.600 F7200.000
G1 X123.391 Y103.433 F7200.000
G1 Z0.100 F7200.000
G1 E0.80000 F2100.00000
G1 X123.596 Y103.255 E0.00485 F900.000
G1 X123.596 Y103.596 E0.00609
G1 X123.254 Y103.596 E0.00610
G1 X123.352 Y103.479 E0.00272
G1 F5760
G1 X123.254 Y103.596 E-0.05293
G1 F5760
G1 X123.596 Y103.596 E-0.11852
G1 F5760
G1 X123.596 Y103.255 E-0.11838
G1 F5760
G1 X123.391 Y103.433 E-0.09431
G1 E-0.41586 F2100.00000
G1 Z0.600 F7200.000
G1 X126.404 Y103.254 F7200.000
G1 Z0.100 F7200.000
G1 E0.80000 F2100.00000
G1 X126.499 Y103.329 E0.00217 F900.000
G1 X126.748 Y103.596 E0.00651
G1 X126.404 Y103.596 E0.00614
G1 X126.404 Y103.314 E0.00503
M106 S255
M104 S210 ; set temperature
;BEFORE_LAYER_CHANGE
;0.2


G1 F5760
G1 X126.404 Y103.596 E-0.09784
G1 F5760
G1 X126.748 Y103.596 E-0.11935
G1 F5760
G1 X126.499 Y103.329 E-0.12651
G1 F5760
G1 X126.404 Y103.254 E-0.04216
G1 E-0.41414 F2100.00000
G1 Z0.600 F7200.000
;AFTER_LAYER_CHANGE
;0.2
G1 X127.515 Y105.911 F7200.000
G1 Z0.200 F7200.000
G1 E0.80000 F2100.00000
M204 S800
G1 X127.365 Y106.249 E0.00659 F900.000
G1 X127.163 Y106.572 E0.00678
G1 X126.926 Y106.855 E0.00658
G1 X126.792 Y106.985 E0.00332
G1 X126.496 Y107.217 E0.00671
G1 X126.169 Y107.406 E0.00672
G1 X126.006 Y107.478 E0.00319
G1 X125.643 Y107.596 E0.00679
G1 X125.464 Y107.634 E0.00326
G1 X125.283 Y107.660 E0.00326
G1 X124.903 Y107.673 E0.00679
G1 X124.724 Y107.660 E0.00319
G1 X124.353 Y107.595 E0.00672
G1 X123.994 Y107.478 E0.00672
G1 X123.831 Y107.406 E0.00319
G1 X123.501 Y107.215 E0.00679
G1 X123.356 Y107.110 E0.00319
G1 X123.076 Y106.858 E0.00672
G1 X122.838 Y106.575 E0.00659
G1 X122.731 Y106.417 E0.00339
G1 X122.640 Y106.259 E0.00325
G1 X122.487 Y105.915 E0.00672
G1 X122.383 Y105.552 E0.00672
G1 X122.352 Y105.376 E0.00319
G1 X122.326 Y105.003 E0.00666
G1 X122.351 Y104.632 E0.00664
G1 X122.430 Y104.259 E0.00679
G1 X122.485 Y104.089 E0.00319
G1 X122.635 Y103.751 E0.00659
G1 X122.837 Y103.428 E0.00678
G1 X123.074 Y103.145 E0.00658
G1 X123.208 Y103.015 E0.00332
G1 X123.508 Y102.780 E0.00678
G1 X123.831 Y102.595 E0.00664
G1 X124.177 Y102.455 E0.00666
G1 X124.349 Y102.406 E0.00319
G1 X124.720 Y102.340 E0.00671
G1 X125.101 Y102.328 E0.00678
G1 X125.468 Y102.367 E0.00659
G1 X125.643 Y102.404 E0.00319
G1 X126.006 Y102.522 E0.00679
G1 X126.169 Y102.594 E0.00319
G1 X126.499 Y102.785 E0.00679
G1 X126.644 Y102.890 E0.00319
G1 X126.927 Y103.145 E0.00679
G1 X127.162 Y103.425 E0.00651
G1 X127.361 Y103.744 E0.00672
G1 X127.512 Y104.082 E0.00659
G1 X127.570 Y104.259 E0.00332
G1 X127.648 Y104.628 E0.00671
G1 X127.675 Y105.004 E0.00672
G1 X127.668 Y105.187 E0.00326
G1 X127.649 Y105.368 E0.00326
G1 X127.533 Y105.854 E0.00890
M204 S1000
G1 X127.250 Y105.975 F7200.000
M204 S800
G1 X125.975 Y105.975 E0.02272 F900.000
G1 X125.975 Y107.250 E0.02272
G1 X124.025 Y107.250 E0.03474
G1 X124.025 Y105.975 E0.02272
G1 X122.750 Y105.975 E0.02272
G1 X122.750 Y104.025 E0.03474
G1 X124.025 Y104.025 E0.02272
G1 X124.025 Y102.750 E0.02272
G1 X125.975 Y102.750 E0.03474
G1 X125.975 Y104.025 E0.02272
G1 X127.250 Y104.025 E0.02272
G1 X127.250 Y105.915 E0.03367
M204 S1000
G1 X126.932 Y106.221 F7200.000
M204 S2000
G1 X126.221 Y106.932 E0.00747 F900.000
M204 S1000
G1 F5760
G1 X126.932 Y106.221 E-0.34839
G1 E-0.45161 F2100.00000
G1 Z0.700 F7200.000
G1 X123.615 Y107.013 F7200.000
G1 Z0.200 F7200.000
G1 E0.80000 F2100.00000
M204 S2000
G1 X123.779 Y106.848 E0.00173 F900.000
G1 X123.145 Y106.221 E0.00663
G1 X122.988 Y106.378 E0.00165
M204 S1000
G1 F5760
G1 X123.145 Y106.221 E-0.07686
G1 F5760
G1 X123.779 Y106.848 E-0.30920
G1 F5760
G1 X123.615 Y107.013 E-0.08059
G1 E-0.33336 F2100.00000
G1 Z0.700 F7200.000
G1 X123.061 Y103.779 F7200.000
G1 Z0.200 F7200.000
G1 E0.80000 F2100.00000
M204 S2000
G1 X123.779 Y103.061 E0.00754 F900.000
M204 S1000
G1 F5760
G1 X123.061 Y103.779 E-0.35191
G1 E-0.44809 F2100.00000
G1 Z0.700 F7200.000
G1 X126.221 Y103.145 F7200.000
G1 Z0.200 F7200.000
G1 E0.80000 F2100.00000
M204 S2000
G1 X126.381 Y102.984 E0.00168 F900.000
G1 X127.010 Y103.618 E0.00663
G1 X126.848 Y103.779 E0.00169
M204 S1000
;BEFORE_LAYER_CHANGE
;0.3


G1 F5760
G1 X127.010 Y103.618 E-0.07902
G1 F5760
